X: 38798
T: Such A Gettin' Upstairs
R: reel
M: 4/4
K: Dmajor
ag|fdec A2c2|dfed f2g2|fdec A2c2|1 dfec d2:|2 dfec d2 a>g||
f2g2a2d2|f2g2 a3a|b2a2g2f2|e2f2g2||

